**kern
*staff1
*head1[head1]
*solo1[solo1]
*solo1[solo2]
=1-
*clefG2
*k[]
*G:
*M4/4
1r
=2
1r
=3
1r
=4
2r
4r
8r
*>head1
{8d/
=5
8g/L
8a/
8b/
8cc/J
8dd\L
8b\
8cc\
8dd\J
=6
8b/L
8g/J
4r
4r
8r
8d/
=7
8g/L
8a/
8b-/
8cc/J
8dd\
4ee\
8ff\
=8
8r
8g/L
8a/
[8b-/J
4.b-\]
8dd\
=9
8cc\
4a/
8f/
8b-/L
8a-/
8an/
8f/J}
=10
2r
4r
8r
{[8a-/
=11
4a-/]
8g/L
8f/J
8e/L
8g/
8f/
8c/J
=12
4f/
8e-/L
8d/J
4r
8r
[8dd-\
=13
4dd-\]
8cc\L
8b-\J
8a/L
8cc/
8b-/
8g/J
=14||
4a/
8g/L
8f#/J
4r
8r
8d/
=15
=
8a/L
8g/
8d/
8B-/J
8f/L
8d/
8e-/
8d/J
=16
8r
8a/
12f#/L
12g/
12a/J
12f#/L
12g/
12a/J
12f#/L
12g/
12a/J
=17
4dd\}
4r
2r
=18
1r
=19
1r
=20
1r
=21
=
8a/L
8g/
8d/
8B/J
8f/L
8d/
8e-/
8d/J
=22:|!
8r
*>bridge1
{8a/
12f#/L
12g/
12a/J
12f#/L
12g/
12a/J
12f#/L
12g/
12a/J
=23
8dd/L
8a/J
12f#/L
12g/
12a/J
12f#/L
12g/
12a/J
12f#/L
12g/
12a/J
=24
8dd/L
8a/J
12f#/L
12g/
12a/J
12f#/L
12g/
12a/J
12f#/L
12g/
12a/J
=25
8dd/L
8a/J
12f#/L
12g/
12a/J
12f#/L
12g/
12a/J
12f#/L
12g/
12a/J
=26
4dd\}
4r
4r
8r
*>solo1
{8a/
=27
8f#/L
8a/
8dd/
8cc/J
8b/L
8g/
8e/
8e-/J
=28||
8d/L
8c/J
12B/L
12d/
12f#/J
8a/L
8f#/
8g/
8a/J
=29
8b-\L
16cc\L
16b-\J
8a\
8g\J
8cc/L
[8g/J
4g/]}
=30
1r
=31
{4f/
8c/L
8f/J
8a/L
8b-/
8a/
8g/J
=32
8f/L
8d-/
8c/
8B-/J
8A/L
8c/
8e/
8g/J
=33
4a-/
8e-/L
8c/J
8g/L
[8f/J
4f/]}
=34
1r
=35
8r
{8e-/
12g\L
12b-\
12dd-\J
4ff\
8ee-\L
[8ddn\J
=36||
4dd\]
16cc\LL
16dd\
16cc\
16b-\JJ
8a/L
8g/
8f#/
8a/J
=37
8e/L
8A/
8c/
8e-/J
8d/L
8B-/
8G/
8A/J
=38
8c/L
8A/J
12B-/L
12d/
12a/J
8b-/L
8g-/
8e-/
8c/J
=39
8a/L
8f#/J}
4r
2r
=40
4r
{8a/L
8f#/J
8a-/L
[8dd-/J
4dd-\]
=41
8cc/L
8g/
8e/
8c/J
8b/L
8b-/
8a/
8a-/J
=42
8g/L
16e/L
16c/J
8A/
[8g/J
8g/L]
16e-/L
16c/J
8A-/
[8f#/J
=43
8f#/L]
*>solo2
16d/L
16B/J
8G/
[8e/J
8e/L]
[8f#/
8f#/]
16d/L
16B/JJ
=44||
8G/L
[8e/J
4e/]}
4r
8r
{8e/
=45
8f/L
16d/L
16B-/JJ
16A/LL
16G/J
[8e/J
8e/L]
[8f/
8f/]
16d/L
16B-/JJ
=46
16A/LL
16G/J
[8e/J
4e/]}
2r
=47
8r
{8e/
12f/L
12a/
12cc/J
8ee\L
8ee-\
8dd\
8dd-\J
=48
8cc\L
8a\
8b-\
16cc\L
16b-\JJ
8a/L
8f/
8d/
8c/J
=49
4cc\
8g/L
[8a-/J
4a-/]}
4r
=50
4r
8r
{8e-/
12g\L
12b-\
12dd\J
8ee-\L
[8dd-\J
=51
4dd-\]
8b-\L
8cc\J
8b-/L
8a-/
8g/J
8r
=52||
8r
8b-\
24a/LL
24b-/
24a/JJ
8g/
8f#/L
8a/
8e/
8A/J
=53
8c/L
8e-/
8d/
8c/J
4B/}
4r
=54
2r
4r
8r
{8ee\
=55
8ff/L
8a/
8g#/
8a/J
8ee\L
8ee-\
8dd\
8dd-\J
=56
8cc/L
8g/J
16e/LL
16c/J
[8e-/J
8e-/]
8r
8r
16dd\LL
16cc\JJ
=57
8b/L
8a/
8a-/
8B/J
8d/L
8f/
8e/
16e/L
16e-/JJ
=58
8d/L
8B/J
12c/L
12e/
12g/J
4b\
8dd/L
[8e/J
=59
2e/]}
2r
==
*-
